X: 1
T: Donald Blue
R: reel
M: 4/4
L: 1/8
K: Dmaj
|:dBAF AFAB|dBAF E2D2|dBAF AFAd|BB2A B2e2:|
|:ABde fafd|fafd edB2|ABde fafd|BB2A B2d2:|


Tune 1175	Setting 23886

